X: 12749
T: Father Newman's
R: reel
M: 4/4
K: Gmajor
(3Bcd)|~e3g edBA|GFGB dGBd|ea a/a/a bafb|agef gedg|
~e3g edBA|GFGB dGBd|ea a/a/a gedg|edBA G3:|
(3ABc)|dG G/G/G FGAc|dg g/g/g fgaf|dg g/g/g bgag|ef ((3gfe) fafe|
dG G/G/G FGAc|dg g/g/g fgaf|dggf gedg|edBA G3:|

